X: 89
T: Round: Be You to Others Kind and True
C: Jenkins.
%R: air, waltz
B: "The Everyday Song Book", 1927
F: http://www.library.pitt.edu/happybirthday/pdf/The_Everyday_Song_Book.pdf
Z: 2017 John Chambers <jc:trillian.mit.edu>
M: 3/4
L: 1/4
K: G
% - - - - - - - - - - - - - - - - - - - - - - - - - - - - -
"^1"d | d2 B | e2 d | d2 c | B z |] "^2"B | B2 G | c2 B |
w: Be you to oth-ers kind and true,  And al-ways un-to
B2 A G z |] "^3"G | G2 G | G2 G | D2 D | G z |]
w: oth-ers do  As you'd have oth-ers do to you.
% - - - - - - - - - - - - - - - - - - - - - - - - - - - - -
